X: 20933
T: Jovial Journalist, The
R: reel
M: 4/4
K: Gmajor
|:B2BA Bddg|e2ed eage|B2BA Bddg|1 edBG A2GA:|2 edBG A2eg||
|:a2ag baag|bage degb|1 a/a/aag baab|gedB A2eg:|2 aegd efga|gedB A2GA||

